packages/ffe-icons/icons/filled/md/keyboard_keys.svg

<svg xmlns="http://www.w3.org/2000/svg" height="24" viewBox="0 -960 960 960" width="24"><path d="M320-284.616q-14.692 0-25.038-10.153-10.346-10.154-10.346-25.231 0-14.692 10.346-25.038T320-355.384h320q14.692 0 25.038 10.153 10.346 10.154 10.346 25.231 0 14.692-10.346 25.038T640-284.616H320Zm-160-320q-14.692 0-25.038-10.346T124.616-640q0-14.692 10.346-25.038T160-675.384q14.692 0 25.038 10.346T195.384-640q0 14.692-10.346 25.038T160-604.616Zm160 0q-14.692 0-25.038-10.346T284.616-640q0-14.692 10.346-25.038T320-675.384q14.692 0 25.038 10.346T355.384-640q0 14.692-10.346 25.038T320-604.616Zm160 0q-14.692 0-25.038-10.346T444.616-640q0-14.692 10.346-25.038T480-675.384q14.692 0 25.038 10.346T515.384-640q0 14.692-10.346 25.038T480-604.616Zm160 0q-14.692 0-25.038-10.346T604.616-640q0-14.692 10.346-25.038T640-675.384q14.692 0 25.038 10.346T675.384-640q0 14.692-10.346 25.038T640-604.616Zm160 0q-14.692 0-25.038-10.346T764.616-640q0-14.692 10.346-25.038T800-675.384q14.692 0 25.038 10.346T835.384-640q0 14.692-10.346 25.038T800-604.616Zm0 160q-14.692 0-25.038-10.346T764.616-480q0-14.692 10.346-25.038T800-515.384q14.692 0 25.038 10.346T835.384-480q0 14.692-10.346 25.038T800-444.616Zm-160 0q-14.692 0-25.038-10.346T604.616-480q0-14.692 10.346-25.038T640-515.384q14.692 0 25.038 10.346T675.384-480q0 14.692-10.346 25.038T640-444.616Zm-160 0q-14.692 0-25.038-10.346T444.616-480q0-14.692 10.346-25.038T480-515.384q14.692 0 25.038 10.346T515.384-480q0 14.692-10.346 25.038T480-444.616Zm-160 0q-14.692 0-25.038-10.346T284.616-480q0-14.692 10.346-25.038T320-515.384q14.692 0 25.038 10.346T355.384-480q0 14.692-10.346 25.038T320-444.616Zm-160 0q-14.692 0-25.038-10.346T124.616-480q0-14.692 10.346-25.038T160-515.384q14.692 0 25.038 10.346T195.384-480q0 14.692-10.346 25.038T160-444.616Z"/></svg>

<svg xmlns="http://www.w3.org/2000/svg" height="24" viewBox="0 -960 960 960" width="24"><path d="M320-284.62q-14.69 0-25.04-10.15-10.34-10.15-10.34-25.23 0-14.69 10.34-25.04 10.35-10.34 25.04-10.34h320q14.69 0 25.04 10.15 10.34 10.15 10.34 25.23 0 14.69-10.34 25.04-10.35 10.34-25.04 10.34H320Zm-160-320q-14.69 0-25.04-10.34-10.34-10.35-10.34-25.04t10.34-25.04q10.35-10.34 25.04-10.34t25.04 10.34q10.34 10.35 10.34 25.04t-10.34 25.04q-10.35 10.34-25.04 10.34Zm160 0q-14.69 0-25.04-10.34-10.34-10.35-10.34-25.04t10.34-25.04q10.35-10.34 25.04-10.34t25.04 10.34q10.34 10.35 10.34 25.04t-10.34 25.04q-10.35 10.34-25.04 10.34Zm160 0q-14.69 0-25.04-10.34-10.34-10.35-10.34-25.04t10.34-25.04q10.35-10.34 25.04-10.34t25.04 10.34q10.34 10.35 10.34 25.04t-10.34 25.04q-10.35 10.34-25.04 10.34Zm160 0q-14.69 0-25.04-10.34-10.34-10.35-10.34-25.04t10.34-25.04q10.35-10.34 25.04-10.34t25.04 10.34q10.34 10.35 10.34 25.04t-10.34 25.04q-10.35 10.34-25.04 10.34Zm160 0q-14.69 0-25.04-10.34-10.34-10.35-10.34-25.04t10.34-25.04q10.35-10.34 25.04-10.34t25.04 10.34q10.34 10.35 10.34 25.04t-10.34 25.04q-10.35 10.34-25.04 10.34Zm0 160q-14.69 0-25.04-10.34-10.34-10.35-10.34-25.04t10.34-25.04q10.35-10.34 25.04-10.34t25.04 10.34q10.34 10.35 10.34 25.04t-10.34 25.04q-10.35 10.34-25.04 10.34Zm-160 0q-14.69 0-25.04-10.34-10.34-10.35-10.34-25.04t10.34-25.04q10.35-10.34 25.04-10.34t25.04 10.34q10.34 10.35 10.34 25.04t-10.34 25.04q-10.35 10.34-25.04 10.34Zm-160 0q-14.69 0-25.04-10.34-10.34-10.35-10.34-25.04t10.34-25.04q10.35-10.34 25.04-10.34t25.04 10.34q10.34 10.35 10.34 25.04t-10.34 25.04q-10.35 10.34-25.04 10.34Zm-160 0q-14.69 0-25.04-10.34-10.34-10.35-10.34-25.04t10.34-25.04q10.35-10.34 25.04-10.34t25.04 10.34q10.34 10.35 10.34 25.04t-10.34 25.04q-10.35 10.34-25.04 10.34Zm-160 0q-14.69 0-25.04-10.34-10.34-10.35-10.34-25.04t10.34-25.04q10.35-10.34 25.04-10.34t25.04 10.34q10.34 10.35 10.34 25.04t-10.34 25.04q-10.35 10.34-25.04 10.34Z"/></svg>
